X: 572
T: Spring Into the Drink.
T: leim astea.c 'san uisge.
N:"Animated." "Collected from J. O'Neill."
B:O'Neill's 572
Z:Transcribed by J.B. Walsh walsh@math.ubc.ca
Z:3rd-to-last measure in the second part: the second B has a dot
Z:placed just after it--might be a stacatto mark, or mean that the
Z:note should be played in broken rhythm (but then the next note
Z:should be a 32nd note) or just a typo.
M:3/4
L:1/16
%Q:85
K:G
(DE/F/) .G2(GA)|B2d2 (ec)(BA) .G2(GA)|(B3G) .E2(DE) .G2(GA)|B2d2 ecBA .G2.G2|G6:|
GA "cresc"(Bd).e.f|">"g4 f2e^d (eg)(fg)|e3d B2A2 (Bd)(ef)|(g4 f2)(e^d) (eg)(fd)|e6 Hf2 g2((3efe)|
(d3e) B2A2 .G2(GA)|B3G .E2(DE) .G2(GA)|B2d2 ecBA .G2.G2|G4||


